!!!COM: Palestrina, Giovanni Perluigi da
!!!OPR: Missa Ecce sacerdos magnus
!!!OMD: Agnus III
!!!OTL: coda
**kern	**kern	**kern	**kern
*Ibass	*Itenor	*Icalto	*Icant
!Bassus	!Tenor	!Altus	!Cantus
*clefF4	*clefGv2	*clefG2	*clefG2
*k[]	*k[]	*k[]	*k[]
*G:mix	*G:mix	*G:mix	*G:mix
*M4/2	*M4/2	*M4/2	*M4/2
=46	=46	=46	=46
2A	0r	0f	2cc
2.B-	.	.	2.dd
4A	.	.	4cc
2F	.	.	2a
=47	=47	=47	=47
2G	0r	1e	2b
2.A	.	.	2.cc
.	.	[1c	.
4G	.	.	4b
2E	.	.	2g
=48	=48	=48	=48
2F	1r	1c]	2a
2A	.	.	1cc
1G	2r	1d	.
.	2d	.	2b
=49	=49	=49	=49
1r	[3e	1c	2cc
.	3e]	.	.
.	.	.	2ee
.	[3c	.	.
2r	3c]	1G	1dd
.	[3B	.	.
2d	.	.	.
.	3B]	.	.
=50	=50	=50	=50
2e	[3c	1r	1g
.	3c]	.	.
1c	.	.	.
.	[3e	.	.
.	3e]	2r	1r
.	[3d	.	.
2B	.	2d	.
.	3d]	.	.
=51	=51	=51	=51
2c	1r	[3e	[0a
.	.	3e]	.
2d	.	.	.
.	.	[3d	.
1A	1e	3d]	.
.	.	[3c	.
.	.	3c]	.
=52	=52	=52	=52
1D	[3f	[3d	0a]
.	3f]	3d]	.
.	[3d	[3f	.
1A	3d]	3f]	.
.	[3c	[3e	.
.	3c]	3e]	.
=53	=53	=53	=53
2r	3.B	1d	[0g
2d	6A	.	.
.	3B	.	.
[3e	1c	1r	.
3e]	.	.	.
[3c	.	.	.
=54	=54	=54	=54
3c]	1G	1r	0g]
[3B	.	.	.
3B]	.	.	.
[3c	1r	1e	.
3c]	.	.	.
3e	.	.	.
=55	=55	=55	=55
1d	1r	[3f	[0a
.	.	3f]	.
.	.	[3d	.
1A	1e	3d]	.
.	.	[3c	.
.	.	3c]	.
=56	=56	=56	=56
1D	2f	[3d	0a]
.	.	3d]	.
.	1d	.	.
.	.	[3f	.
1A	.	3f]	.
.	.	[3e	.
.	2c	.	.
.	.	3e]	.
=57	=57	=57	=57
2r	4A	1a	[0cc
.	4B	.	.
2A	4c	.	.
.	4d	.	.
2c	2e	2g	.
[2F	2f	[2a	.
=58	=58	=58	=58
2F]	1c	2a]	0cc]
2E	.	4g	.
.	.	4f	.
1A	1r	2e	.
.	.	2f#	.
=59	=59	=59	=59
1G	1d	1.g	0b
1G	2e	.	.
.	[2d	2f	.
=60	=60	=60	=60
1A	2d]	1e	0a
.	2c#	.	.
1F	2d	1f	.
.	[2c	.	.
=61	=61	=61	=61
1G	2c]	0d	1g
.	4B	.	.
.	4A	.	.
1G	1B	.	2r
.	.	.	2dd
=62	=62	=62	=62
1C	1c	2r	2ee
.	.	2g	1cc
2F	2r	2a	.
2G	2d	[2g	2b
=63	=63	=63	=63
2E	2e	2g]	2cc
2F	1c	2f	2cc
1D	.	2f	2r
.	2B	2d	2dd
=64	=64	=64	=64
1C	2c	1g	[3ee
.	.	.	3ee]
.	2e	.	.
.	.	.	[3cc
1G	1d	2r	3cc]
.	.	.	[3b
.	.	2d	.
.	.	.	3b]
=65	=65	=65	=65
1C	1c	2e	[3cc
.	.	.	3cc]
.	.	1c	.
.	.	.	[3ee
2r	1G	.	3ee]
.	.	.	[3dd
2F	.	2B	.
.	.	.	3dd]
=66	=66	=66	=66
2A	2r	4c	1cc
.	.	4B	.
1F	2c	4A	.
.	.	4G	.
.	2d	2A	2r
2E	[2c	2G	2g
=67	=67	=67	=67
2F	2c]	0d	2a
2G	2B	.	1g
2D	1A	.	.
2D	.	.	2f#
=68	=68	=68	=68
[3E	1G	2B	0g
3E]	.	.	.
.	.	2e	.
[3C	.	.	.
3C]	2r	1d	.
[3BB	.	.	.
.	2d	.	.
3BB]	.	.	.
=69	=69	=69	=69
3.C	[3e	1c	[0g
.	3e]	.	.
6D	.	.	.
3E	[3c	.	.
3C	3c]	2r	.
[3G	[3B	.	.
.	.	2d	.
3G]	3B]	.	.
=70	=70	=70	=70
1C	[3c	[3e	0g_
.	3c]	3e]	.
.	[3e	[3c	.
1G	3e]	3c]	.
.	[3d	[3B	.
.	3d]	3B]	.
=71	=71	=71	=71
0C	[3e	2.c	0g_
.	3e]	.	.
.	3d	.	.
.	.	4d	.
.	1c	1e	.
=72	=72	=72	=72
[0G	[0B	[0d	0g_
=73	=73	=73	=73
0G]	0B]	0d]	0g]
==	==	==	==
*-	*-	*-	*-
!!!CDT: 1525/^1526/-1594/2/2
!!!OCY: Italia
!!!AGN: Mass (Tenor)
!!!AST: renaissance, vocal
!!!ASW: Antiphon
!!!PWK: Masses, Book I
!!!RNB: Cadence finals: D,C
!!!YOR: Le Opere Complete, v. 1, p. 1
!!!YOO: Rome, Italy: Fratelli Scalera
!!!END: 1992//
!!!EED: John Miller
!!!YEC: Copyright 2000, John Miller
!!!YEN: United States of America
!!!YEM: Rights to all derivative electronic formats reserved.
!!!YEM: Refer to licensing agreement for further details.
!!!YEM: This file must be accompanied by the licensing agreement.
!!!YEM: A copy of the licensing agreement may be found at http://www.music-cog.ohio-state.edu/HumdrumDatabases/Palestrina/license.txt
!!!EMD: converted to Humdrum by Bret Aarden
